logos/doctolib-logo.svg

<svg xmlns="http://www.w3.org/2000/svg" fill="none" viewBox="0 0 1000 1000">
  <path fill="#1D78C6" d="M123.9 604.4c-42.9 0-49.4-5-47.2-14.6 1.6-6.8 36.7-137.6 37.5-140.6 3.5-14 18.2-10.6 18.8-10.5.4.1.7.5.6.9-1.3 11.2-21.9 121.7-22.1 123.1-1.7 10.9 0 12 13.5 12 66.7 0 90.9-46.1 97.5-82.9 11.4-63.8-51.2-82.9-138.5-75.1-.8.1-6.6.4-9.1-.8-3.3-1.6-6.1-5.6-6.8-7.8-.3-.8-.3-1.6 0-2.1.2-.3.4-.6.7-.7 28.2-5 67.4-11.7 92.7-9 95.8 10.1 95.8 70.4 90.2 100.9-3.1 17.7-19.3 107.2-127.8 107.2ZM467.3 565c-6.2 21.1-25.1 35.7-47.1 36.3-18.5 1-37-9.5-45.1-25.7-3.2-6.1-5-12.7-5.7-20.5-2.8 1.3-5.7 2.5-8.6 3.4-3.8 10.7-10.4 20.6-19.5 27.4-19.5 14.5-45.9 18.7-69.6 5.7-29.2-20.1-25.6-60.6-5.2-84.4 20.3-23.8 57.6-27.8 76.3-16.1 12.7 8.2 19.5 22.3 21.3 37 2.7-1.9 5.1-4.3 7.9-7.5 2.6-3.1 7.7-10.7 7.7-10.7 3-4.6 6.7-8.9 10.8-12.6 8.6-7.5 19.5-11.2 30.5-11.2 9.5 0 19.2 2.8 27.6 8.5 2.7 1.8 3.4 2.8 2.5 4.3-1.2 2.2-2.5 4.2-4.1 6.1-3 3.6-6.1 2.3-8.2 1.4-.3-.1-.6-.3-.9-.4-9.4-3.3-17.1-2.6-25.1 2.2-17.3 10.5-19.9 30.9-16.7 46.5 3.3 15.9 12.1 21.3 19 23 12.6 3.2 29.5-3.6 40.2-16.2 3.2-3.8 8.1-1.3 11.6 1.5.2.1.3.2.4.3.5.6 0 1.6 0 1.7Zm-131.5-53.6c-12.9-16-36.3-10.6-49.5 4.2-13.2 14.9-13.4 39.3 1 49.6 13.5 9.6 35 4.5 45.6-10.9 7.4-10.8 14.1-29 2.9-42.9ZM658.6 545c-1.8 15.6-9.8 31.4-22.6 41-19.5 14.5-45.9 18.7-69.6 5.7-3-2.1-5.7-4.4-8-6.9-4 3.6-8.7 7.2-13.9 10.3-15.9 9.6-38.1 7.1-51.8-5.7-8.7-7.8-12.9-20.7-11.3-33.8 1.4-11.6 11.8-51.6 21.5-87.4-9.5.3-17.8 0-22.4-2.2-7.4-3.6-5.6-15.9-4.9-19.4.1-.5.6-.9 1.1-.9 3.6 0 17.2-.1 32.3-.2 6.3-23 11.3-40.3 11.3-40.3 1.8-6.1 8.5-9.4 14.6-9.4 1.2 0 2.3.1 3.4.4.4.1.6.5.5 1-1.6 9.9-4.7 27.9-8.4 48.3 8.2 0 15.6.1 20.6.2 17.6.4 40.8 1.4 45.5 1.6.5 0 1 .4 1.1.9.5 2.2.9 7.7-5.4 11.3-5.4 3-44.6 5.8-62.6 7-1 .1-1.9.1-2.9.2-7.5 41.4-15.5 84.3-15.9 86.2-2 10 4.3 16.1 9.9 17.3 10.3 2.2 18.7-2.2 25.7-8.6-3.9-18.7 2.2-39.7 14.7-54.4 20.3-23.8 57.6-27.8 76.3-16.1 17.6 11.5 23.8 34.1 21.2 53.9Zm-28-33.6c-12.9-16-36.3-10.6-49.5 4.2-13.2 14.9-13.4 39.3 1 49.6 13.5 9.6 35 4.5 45.6-10.9 7.4-10.8 14.1-29 2.9-42.9Zm145.2-50.1c5.8 3.8 13.1 2 17.8-1.5 3.2-2.4 5.3-6.3 5.8-10.5.6-4.4-.5-10.6-5.4-13.8-1.9-1.2-4.1-1.7-6.4-1.7-3.6 0-7.3 1.3-10.2 3-.9.6-1.6 1.2-2.3 2-.4.5-.8 1.1-1.1 1.7-4.1 7.2-5 16.1 1.8 20.8Zm134.4 30c-13.3-8.4-36.2-8.7-55.6.5 4.2-23.1 13.3-86.5 14.6-94.5.1-.3 0-.5-.1-.7-.1-.2-.3-.3-.5-.3-1.1-.2-2.2-.4-3.4-.4-6.1 0-12.8 3.3-14.6 9.4 0 0-35.6 143.7-36.8 150.4-8.2 12.7-18.1 17.6-28.9 14.3-9-2.8-8.5-9.7-8.2-13.1.5-5.4 9.8-58.7 11.5-70.6.1-.8-.4-1.5-1.2-1.7-1.9-.3-3.9-.5-5.9-.5-6.6 0-13.4 2.4-17.4 12.4-.1.4-11.8 41.3-14 50.1-.3 1.1-.5 2.2-.8 3.3-8.6 13-21.9 24.4-41.1 20.3-5.6-1.2-11.8-5.3-9.9-17.3.5-3.2 18.1-105 23.2-137.5.1-.5-.1-.9-.5-1-1.1-.3-2.3-.4-3.4-.4-6.1 0-12.7 3.3-14.6 9.4 0 0-28.1 103.1-34.1 132.2-2.7 12.8-.8 25.3 10.6 35.4 10.6 9.5 31 12.5 47.9 5.4 9.8-4.1 18-10.8 23.7-16.6 7.4 14.8 25.1 24.4 41.4 20.5 12.6-3 22.2-12.1 28.5-19.7 2.5 3.6 5.4 6.8 8.5 9.3 14.5 11.5 35 13.6 53.6 8.1 9.4-2.1 18.4-6.2 26.2-12 12.8-9.7 20.9-25.4 22.6-41 2.6-19.8-3.7-42.4-21.3-53.7Zm-9.2 65.3c-10.5 15.4-34.6 21.2-48.1 11.6-14.5-10.3-11.7-35.5 1.5-50.3 13.2-14.9 36.6-20.2 49.5-4.2 11.2 13.8 4.5 32-2.9 42.9Z"/>
</svg>

<svg width="1000" height="1000" viewBox="0 0 1000 1000" fill="none" xmlns="http://www.w3.org/2000/svg">
<path d="M123.9 604.4C81 604.4 74.5 599.4 76.7 589.8C78.3 583 113.4 452.2 114.2 449.2C117.7 435.2 132.4 438.6 133 438.7C133.4 438.8 133.7 439.2 133.6 439.6C132.3 450.8 111.7 561.3 111.5 562.7C109.8 573.6 111.5 574.7 125 574.7C191.7 574.7 215.9 528.6 222.5 491.8C233.9 428 171.3 408.9 84 416.7C83.2 416.8 77.4 417.1 74.9 415.9C71.6 414.3 68.8 410.3 68.1 408.1C67.8 407.3 67.8 406.5 68.1 406C68.3 405.7 68.5 405.4 68.8 405.3C97 400.3 136.2 393.6 161.5 396.3C257.3 406.4 257.3 466.7 251.7 497.2C248.6 514.9 232.4 604.4 123.9 604.4ZM467.3 565C461.1 586.1 442.2 600.7 420.2 601.3C401.7 602.3 383.2 591.8 375.1 575.6C371.9 569.5 370.1 562.9 369.4 555.1C366.6 556.4 363.7 557.6 360.8 558.5C357 569.2 350.4 579.1 341.3 585.9C321.8 600.4 295.4 604.6 271.7 591.6C242.5 571.5 246.1 531 266.5 507.2C286.8 483.4 324.1 479.4 342.8 491.1C355.5 499.3 362.3 513.4 364.1 528.1C366.8 526.2 369.2 523.8 372 520.6C374.6 517.5 379.7 509.9 379.7 509.9C382.7 505.3 386.4 501 390.5 497.3C399.1 489.8 410 486.1 421 486.1C430.5 486.1 440.2 488.9 448.6 494.6C451.3 496.4 452 497.4 451.1 498.9C449.9 501.1 448.6 503.1 447 505C444 508.6 440.9 507.3 438.8 506.4C438.5 506.3 438.2 506.1 437.9 506C428.5 502.7 420.8 503.4 412.8 508.2C395.5 518.7 392.9 539.1 396.1 554.7C399.4 570.6 408.2 576 415.1 577.7C427.7 580.9 444.6 574.1 455.3 561.5C458.5 557.7 463.4 560.2 466.9 563C467.1 563.1 467.2 563.2 467.3 563.3C467.8 563.9 467.3 564.9 467.3 565ZM335.8 511.4C322.9 495.4 299.5 500.8 286.3 515.6C273.1 530.5 272.9 554.9 287.3 565.2C300.8 574.8 322.3 569.7 332.9 554.3C340.3 543.5 347 525.3 335.8 511.4ZM658.6 545C656.8 560.6 648.8 576.4 636 586C616.5 600.5 590.1 604.7 566.4 591.7C563.4 589.6 560.7 587.3 558.4 584.8C554.4 588.4 549.7 592 544.5 595.1C528.6 604.7 506.4 602.2 492.7 589.4C484 581.6 479.8 568.7 481.4 555.6C482.8 544 493.2 504 502.9 468.2C493.4 468.5 485.1 468.2 480.5 466C473.1 462.4 474.9 450.1 475.6 446.6C475.7 446.1 476.2 445.7 476.7 445.7C480.3 445.7 493.9 445.6 509 445.5C515.3 422.5 520.3 405.2 520.3 405.2C522.1 399.1 528.8 395.8 534.9 395.8C536.1 395.8 537.2 395.9 538.3 396.2C538.7 396.3 538.9 396.7 538.8 397.2C537.2 407.1 534.1 425.1 530.4 445.5C538.6 445.5 546 445.6 551 445.7C568.6 446.1 591.8 447.1 596.5 447.3C597 447.3 597.5 447.7 597.6 448.2C598.1 450.4 598.5 455.9 592.2 459.5C586.8 462.5 547.6 465.3 529.6 466.5C528.6 466.6 527.7 466.6 526.7 466.7C519.2 508.1 511.2 551 510.8 552.9C508.8 562.9 515.1 569 520.7 570.2C531 572.4 539.4 568 546.4 561.6C542.5 542.9 548.6 521.9 561.1 507.2C581.4 483.4 618.7 479.4 637.4 491.1C655 502.6 661.2 525.2 658.6 545ZM630.6 511.4C617.7 495.4 594.3 500.8 581.1 515.6C567.9 530.5 567.7 554.9 582.1 565.2C595.6 574.8 617.1 569.7 627.7 554.3C635.1 543.5 641.8 525.3 630.6 511.4ZM775.8 461.3C781.6 465.1 788.9 463.3 793.6 459.8C796.8 457.4 798.9 453.5 799.4 449.3C800 444.9 798.9 438.7 794 435.5C792.1 434.3 789.9 433.8 787.6 433.8C784 433.8 780.3 435.1 777.4 436.8C776.5 437.4 775.8 438 775.1 438.8C774.7 439.3 774.3 439.9 774 440.5C769.9 447.7 769 456.6 775.8 461.3ZM910.2 491.3C896.9 482.9 874 482.6 854.6 491.8C858.8 468.7 867.9 405.3 869.2 397.3C869.3 397 869.2 396.8 869.1 396.6C869 396.4 868.8 396.3 868.6 396.3C867.5 396.1 866.4 395.9 865.2 395.9C859.1 395.9 852.4 399.2 850.6 405.3C850.6 405.3 815 549 813.8 555.7C805.6 568.4 795.7 573.3 784.9 570C775.9 567.2 776.4 560.3 776.7 556.9C777.2 551.5 786.5 498.2 788.2 486.3C788.3 485.5 787.8 484.8 787 484.6C785.1 484.3 783.1 484.1 781.1 484.1C774.5 484.1 767.7 486.5 763.7 496.5C763.6 496.9 751.9 537.8 749.7 546.6C749.4 547.7 749.2 548.8 748.9 549.9C740.3 562.9 727 574.3 707.8 570.2C702.2 569 696 564.9 697.9 552.9C698.4 549.7 716 447.9 721.1 415.4C721.2 414.9 721 414.5 720.6 414.4C719.5 414.1 718.3 414 717.2 414C711.1 414 704.5 417.3 702.6 423.4C702.6 423.4 674.5 526.5 668.5 555.6C665.8 568.4 667.7 580.9 679.1 591C689.7 600.5 710.1 603.5 727 596.4C736.8 592.3 745 585.6 750.7 579.8C758.1 594.6 775.8 604.2 792.1 600.3C804.7 597.3 814.3 588.2 820.6 580.6C823.1 584.2 826 587.4 829.1 589.9C843.6 601.4 864.1 603.5 882.7 598C892.1 595.9 901.1 591.8 908.9 586C921.7 576.3 929.8 560.6 931.5 545C934.1 525.2 927.8 502.6 910.2 491.3ZM901 556.6C890.5 572 866.4 577.8 852.9 568.2C838.4 557.9 841.2 532.7 854.4 517.9C867.6 503 891 497.7 903.9 513.7C915.1 527.5 908.4 545.7 901 556.6Z" fill="#1D78C6"/>
</svg>
